X:33
T:La Chasse de L'Isle Adam
C:Sigr. Leoni of Naples - 1760 
N:Transcription by Neal Gladd From "Frets Magazine", 9/87 Tabledited by Kim Davis and Mike Stangeland
L:1/8
Q:1/4=140
M:6/8
K:D
|: z2A AAA | FDd dfd | cAe a2a | fdd dcd | e2A AAA | FDd dfd | cAe a2a | fde fge | 
d6 |1 z2A A2=c | BGB BdB | AFA AdA | GEG GAG | FDA A2=c | BGB BdB | AFA ABc | 
def g2f | e6 :|2 z2A B/A/^G/A/G/A/ | F/E/D/E/F/D/ d/c/d/e/f/d/ | c/B/A/B/c/A/ a/^g/a/g/a/=g/ | 
f/d/c/d/D/d/ e/f/g/^g/a/f/ | e2A B/A/^G/A/G/A/ | F/E/D/E/F/D/ d/c/d/e/f/d/ | c/B/A/B/c/A/ a/^g/a/g/a/=g/ | 
f/d/c/d/D/d/ e/f/g/e/d/c/ | {c}d6 |1 z2A A/F/E/F/A/=c/ | B/G/F/G/G,/G/ B/c/d/c/d/B/ | 
A/F/E/F/A,/F/ A/c/d/c/d/A/ | G/E/D/E/C/E/ G/E/F/G/A/G/ | F/E/D/E/F/D/ A/F/E/F/A/=c/ | 
B/G/F/G/G,/G/ B/c/d/c/d/B/ | A/F/E/F/A,/F/ A/c/d/c/d/A/ | d/f/e/g/f/a/ g/f/g/a/g/f/ | 
e6 :|2 z2A A/a/^g/a/A/a/ | F/a/D/a/A/a/ D/f/e/f/D/f/ | C/e/A,/e/C/e/ A/a/^g/a/A/a/ | 
F/a/D/a/D/a/ {E}D/a/C/a/D/a/ | E/a/E/a/A/a/ A/a/^g/a/A/a/ | F/a/D/a/A/a/ D/f/e/f/D/f/ | 
C/e/A,/e/C/e/ A/a/^g/a/A/a/ | F/e/D/a/F/a/ G/a/F/a/E/a/ | D6 |1 z2A D/F/A/=c/f/a/ | 
B/g/G/g/B/g/ D/G/B/d/g/b/ | A/f/F/f/A/f/ D/F/A/d/f/a/ | G/a/E/a/G/a/ A/a/E/a/G/a/ | 
F/a/D/a/F/a/ D/F/A/d/f/a/ | B/g/G/g/B/g/ D/G/B/d/g/b/ | A/f/F/f/A/f/ A,/A/B,/B/C/c/ | 
D/d/E/e/F/f/ E/g/c/g/D/f/ | [e6c6] :|2 z2A {^G,}A,{G,}A,{G,}A, | D/8E/8F3/4DA {c}d(3d/e/f/(3d/e/f/ | 
[ec][eA][eA] (3A/^g/a/(3A/g/a/(3A/g/a/ | [fA][dF][dF] [dF][cE][dF] | [e2c2]A {^G,}A,{G,}A,{G,}A, | 
D/8E/8F3/4DA {c}d(3d/e/f/(3d/e/f/ | [ec][eA][eA] (3A/^g/a/(3A/g/a/A | [fA][dF][ec] (3f/A/f/ge | 
d6 |1 z2A (3A/F/A/(3A/F/A/(3=c/F/c/ | B[GB,][BG] (3B/G/B/(3d/G/d/(3B/G/B/ | A[FA,][AF] (3A/F/A/(3d/F/d/(3A/F/A/ | 
G[EA,][GA,] (3A/G/A/(3A/A/A/(3A/G/A/ | [AF][AD][AD] (3A/F/A/(3A/F/A/(3=c/F/c/ | 
B[GB,][BG] (3B/G/B/(3d/G/d/(3B/G/B/ | A[FA,][AF] (3A/F/A/(3B/G/B/(3c/E/c/ | d(3e/A/e/f (3g/c/g/g[fd] | 
e6 :|2 z2A A/A/A/A/A/A/ | F/A/D/A/d/d'/ d/d'/f/d'/d/d'/ | c/e/A/e/e/e/ a/e/a/e/a/e/ | 
f/d'/d/d'/d/d'/ d/d'/c/d'/d/d'/ | [c'2e2]A A/A/A/A/A/A/ | F/A/D/A/d/d'/ d/d'/f/d'/d/d'/ | 
c/e/A/e/e/e/ a/e/a/e/a/e/ | f/d'/d/d'/d/d'/ d/d'/c/d'/d/d'/ | d6 

